!!!OTL: Muede kehrt ein Wandersmann zurueck nach der Heimat seiner Liebe Glueck
!!!ARE: Europa, Mitteleuropa, Deutschland, Rheinland Pfalz, Eifel, Kerpen
!!!SCT: D1010
!!!YEM: Copyright 1995, estate of Helmut Schaffrath.
**kern
*ICvox
*Ivox
*M4/4
*k[f#]
*G:
{8d
8g
=1
4.b
8a
8g
8f#
8g
8b
=2
2d
4r}
{8d
8f#
=3
4.a
8g
8f#
8a
8ee
8dd
=4
2b
4r}
{8g
8a
=5
4.b
8dd
8cc
8b
8a
8g
=6
2e
8r}
{8g
8f#
8g
=7
4.d
8g
8f#
8a
8ee
8dd
=8
2b
4r}
{8g
8a
=9
8b
8dd
4dd
8cc
8b
8a
8g
=10
4g
4ee
8r}
{8ee
8dd
8cc
=11
4.b
8g
8f#
8g
8cc
8f#
=12
2g
4r}
==
!!!AGN: Liebes - Lied
!! DVA-Signatur A 52 662
!!!ONB: ESAC (Essen Associative Code) Database: DVA
!!!AMT: simple quadruple
!!!AIN: vox
!!!EED: Helmut Schaffrath
!!!EEV: 1.0
*-
